actions/16/mic-off.svg

<svg xmlns="http://www.w3.org/2000/svg" width="16" height="16">
    <defs>
        <style id="current-color-scheme" type="text/css">
            .ColorScheme-Text{color:#dfdfdf}
        </style>
    </defs>
    <path style="fill:currentColor;color:#4285f4" d="M8 0s3 0 3 3v5c0 3-3 3-3 3s-3 0-3-3V3c0-3 3-3 3-3ZM2 7v1c0 5.5 5 6 5 6v2h2v-2s5-.5 5-6V7h-2v1c0 4-4 4-4 4s-4 0-4-4V7Z"/>
</svg>

<svg xmlns="http://www.w3.org/2000/svg" width="16" height="16">
 <defs>
  <style id="current-color-scheme" type="text/css">
   .ColorScheme-Text { color:#dfdfdf; } .ColorScheme-Highlight { color:#4285f4; }
  </style>
 </defs>
 <path style="fill:currentColor" class="ColorScheme-Highlight" d="M 8,0 C 8,0 11,0 11,3 V 8 C 11,11 8,11 8,11 8,11 5,11 5,8 V 3 C 5,0 8,0 8,0 Z M 2,7 V 8 C 2,13.5 7,14 7,14 V 16 H 9 V 14 C 9,14 14,13.5 14,8 V 7 H 12 V 8 C 12,12 8,12 8,12 8,12 4,12 4,8 V 7 Z"/>
</svg>
